symbols/web/phone_forwarded/materialsymbolsrounded/phone_forwarded_wght300_40px.svg

<svg xmlns="http://www.w3.org/2000/svg" height="40" width="40"><path d="M29.25 15.083q-.292-.333-.292-.75 0-.416.334-.708l2.625-2.667h-8.834q-.458 0-.75-.291-.291-.292-.291-.75 0-.459.291-.75.292-.292.75-.292h8.834L29.333 6.25Q29 5.958 29 5.542q0-.417.333-.75.334-.334.75-.334.417 0 .75.334L35.042 9q.208.208.291.438.084.229.084.479 0 .25-.084.479-.083.229-.291.437l-4.292 4.25q-.292.334-.75.334t-.75-.334Zm3.083 19q-4.75 0-9.479-2.375-4.729-2.375-8.5-6.146-3.771-3.77-6.125-8.479-2.354-4.708-2.354-9.458 0-.75.521-1.271.521-.521 1.271-.521h5q.625 0 1.104.417.479.417.604 1.083l1 4.625q.083.584-.042 1.105-.125.52-.5.854l-3.875 3.791q2.25 3.792 5.104 6.625 2.855 2.834 6.563 4.875l3.75-3.875q.417-.416.937-.604.521-.187 1.105-.062l4.208.916q.667.125 1.083.625.417.5.417 1.209v4.833q0 .792-.521 1.312-.521.521-1.271.521ZM9.917 15.792l3.291-3.167q.042-.083.084-.187.041-.105 0-.188l-.834-4.083q-.041-.125-.125-.188-.083-.062-.208-.062H8.208q-.125 0-.187.062-.063.063-.063.188.042 1.666.521 3.562.479 1.896 1.438 4.063Zm21.916 16.166q.084 0 .146-.062.063-.063.063-.146v-3.917q0-.125-.063-.208-.062-.083-.187-.083l-3.709-.75q-.083-.042-.145-.021-.063.021-.146.104l-3.209 3.333q1.709.792 3.646 1.25 1.938.459 3.604.5Zm-7.25-1.75ZM9.917 15.792Z"/></svg>

<svg xmlns="http://www.w3.org/2000/svg" height="40" width="40"><path d="M29.25 15.083Q28.958 14.75 28.958 14.333Q28.958 13.917 29.292 13.625L31.917 10.958H23.083Q22.625 10.958 22.333 10.667Q22.042 10.375 22.042 9.917Q22.042 9.458 22.333 9.167Q22.625 8.875 23.083 8.875H31.917L29.333 6.25Q29 5.958 29 5.542Q29 5.125 29.333 4.792Q29.667 4.458 30.083 4.458Q30.5 4.458 30.833 4.792L35.042 9Q35.25 9.208 35.333 9.438Q35.417 9.667 35.417 9.917Q35.417 10.167 35.333 10.396Q35.25 10.625 35.042 10.833L30.75 15.083Q30.458 15.417 30 15.417Q29.542 15.417 29.25 15.083ZM32.333 34.083Q27.583 34.083 22.854 31.708Q18.125 29.333 14.354 25.562Q10.583 21.792 8.229 17.083Q5.875 12.375 5.875 7.625Q5.875 6.875 6.396 6.354Q6.917 5.833 7.667 5.833H12.667Q13.292 5.833 13.771 6.25Q14.25 6.667 14.375 7.333L15.375 11.958Q15.458 12.542 15.333 13.063Q15.208 13.583 14.833 13.917L10.958 17.708Q13.208 21.5 16.062 24.333Q18.917 27.167 22.625 29.208L26.375 25.333Q26.792 24.917 27.312 24.729Q27.833 24.542 28.417 24.667L32.625 25.583Q33.292 25.708 33.708 26.208Q34.125 26.708 34.125 27.417V32.25Q34.125 33.042 33.604 33.562Q33.083 34.083 32.333 34.083ZM9.917 15.792 13.208 12.625Q13.25 12.542 13.292 12.438Q13.333 12.333 13.292 12.25L12.458 8.167Q12.417 8.042 12.333 7.979Q12.25 7.917 12.125 7.917H8.208Q8.083 7.917 8.021 7.979Q7.958 8.042 7.958 8.167Q8 9.833 8.479 11.729Q8.958 13.625 9.917 15.792ZM31.833 31.958Q31.917 31.958 31.979 31.896Q32.042 31.833 32.042 31.75V27.833Q32.042 27.708 31.979 27.625Q31.917 27.542 31.792 27.542L28.083 26.792Q28 26.75 27.938 26.771Q27.875 26.792 27.792 26.875L24.583 30.208Q26.292 31 28.229 31.458Q30.167 31.917 31.833 31.958ZM24.583 30.208Q24.583 30.208 24.583 30.208Q24.583 30.208 24.583 30.208Q24.583 30.208 24.583 30.208Q24.583 30.208 24.583 30.208Q24.583 30.208 24.583 30.208Q24.583 30.208 24.583 30.208Q24.583 30.208 24.583 30.208Q24.583 30.208 24.583 30.208ZM9.917 15.792Q9.917 15.792 9.917 15.792Q9.917 15.792 9.917 15.792Q9.917 15.792 9.917 15.792Q9.917 15.792 9.917 15.792Q9.917 15.792 9.917 15.792Q9.917 15.792 9.917 15.792Q9.917 15.792 9.917 15.792Q9.917 15.792 9.917 15.792Z"/></svg>
